X:1
T:Repeal of the Union -- Reel
R:reel
B:Ryan's Mammoth Collection
N: 388
Z: Contributed by Ray Davies,  ray:davies99.freeserve.co.uk
M:C|
L:1/8
K:D
vAD((3FED) A2((3FED) | GEcE dEcE | AD((3FED) A2((3FED) | GEcE (3DDD D2 |
 AD((3FED) A2((3FED) | GEcE dEcE | AD((3FED) A2((3FED) | GEcE (3DDD D2 |]
vAdde fdec | ABcA dBcA | Adde fdec | GEdE DDD2 |
Adde fdec | ABcA dBcA | fgef d2(ed) | GEcE (3DDD D2 |]
